X:1
T:To the Beggin' I Will Go
M:2/4
L:1/8
K:Eb
 z2 B3/2 B/2| G/2 B3/2 Bc| AG FE| GB Bc| F3 B| G3/2 B/2 BB| AG FE|\
 E/2 G3/2 F3/2 E/2| C2 E3/2 E/2| B,E EE| B,E E E/2E/2| B,/2 A3/2 GF|\
 E2 z2|
